X: 36765
T: Shelter Bay
R: slip jig
M: 9/8
K: Cmajor
|:CEG GEG GAc|CEG GAE D2G|CEG GEG GAc|1 dcd ecA AGE:|2 ded dcA AGA||
|:c3 edc deg|c2g edc d2e|c3 edc deg|1 A2A AGE G2A:|2 A2A AGA cGE||

